PortableApps/LibreOfficePortable/App/libreoffice/help/media/icon-themes/cmd/sc_showinvalid.svg

<svg viewBox="0 0 16 16" xmlns="http://www.w3.org/2000/svg"><path d="m5 1v2.3085938a5 6.5 0 0 1 1-.7578126v-1.5507812zm5 0v1.546875a5 6.5 0 0 1 1 .7636719v-2.3105469zm-9 3v1h2.7929688a5 6.5 0 0 1 .6074218-1zm10.605469 0a5 6.5 0 0 1 .607422 1h2.787109v-1zm-10.605469 4v1h2.015625a5 6.5 0 0 1 -.015625-.5 5 6.5 0 0 1 .0195312-.5zm11.984375 0a5 6.5 0 0 1 .015625.5 5 6.5 0 0 1 -.019531.5h2.019531v-1zm-11.984375 4v1h3.3945312a5 6.5 0 0 1 -.6074218-1zm11.207031 0a5 6.5 0 0 1 -.607422 1h3.400391v-1zm-7.207031 1.689453v1.310547h1v-.546875a5 6.5 0 0 1 -1-.763672zm6 .001953a5 6.5 0 0 1 -1 .757813v.550781h1z" fill="#808080"/><path d="m1 1v3h4v-3zm5 0v3h4v-3zm5 0v3h4v-3zm-10 4v3h4v-3zm5 0v7h4v-7zm5 0v3h4v-3zm-10 4v3h4v-3zm10 0v3h4v-3zm-10 4v2h4v-2zm5 0v2h4v-2zm5 0v2h4v-2z" fill="#fff"/><path d="m7 6h2v5h-2z" fill="#b8b8b8"/><path d="m10 2.546875v1.453125h-4v-1.4492188a5 6.5 0 0 0 -1 .7578126v.6914062h-.5996094a5 6.5 0 0 0 -.6074218 1h1.2070312v3h-1.9804688a5 6.5 0 0 0 -.0195312.5 5 6.5 0 0 0 .015625.5h1.984375v3h-1.2128906a5 6.5 0 0 0 .6074218 1h.6054688v.689453a5 6.5 0 0 0 1 .763672v-1.453125h4v1.449219a5 6.5 0 0 0 1-.757813v-.691406h.599609a5 6.5 0 0 0 .607422-1h-1.207031v-3h1.980469a5 6.5 0 0 0 .019531-.5 5 6.5 0 0 0 -.015625-.5h-1.984375v-3h1.212891a5 6.5 0 0 0 -.607422-1h-.605469v-.6894531a5 6.5 0 0 0 -1-.7636719zm-4 2.453125h4v7h-4z" fill="#b8b8b8"/><path d="m8 2a5 6.5 0 0 0 -5 6.5 5 6.5 0 0 0 5 6.5 5 6.5 0 0 0 5-6.5 5 6.5 0 0 0 -5-6.5zm0 1a4 5.5 0 0 1 4 5.5 4 5.5 0 0 1 -4 5.5 4 5.5 0 0 1 -4-5.5 4 5.5 0 0 1 4-5.5z" fill="#e68497"/></svg>

<svg viewBox="0 0 16 16" xmlns="http://www.w3.org/2000/svg">
 <path
   style="fill:#808080"
   d="M 5 1 L 5 3.3085938 A 5 6.5 0 0 1 6 2.5507812 L 6 1 L 5 1 z M 10 1 L 10 2.546875 A 5 6.5 0 0 1 11 3.3105469 L 11 1 L 10 1 z M 1 4 L 1 5 L 3.7929688 5 A 5 6.5 0 0 1 4.4003906 4 L 1 4 z M 11.605469 4 A 5 6.5 0 0 1 12.212891 5 L 15 5 L 15 4 L 11.605469 4 z M 1 8 L 1 9 L 3.015625 9 A 5 6.5 0 0 1 3 8.5 A 5 6.5 0 0 1 3.0195312 8 L 1 8 z M 12.984375 8 A 5 6.5 0 0 1 13 8.5 A 5 6.5 0 0 1 12.980469 9 L 15 9 L 15 8 L 12.984375 8 z M 1 12 L 1 13 L 4.3945312 13 A 5 6.5 0 0 1 3.7871094 12 L 1 12 z M 12.207031 12 A 5 6.5 0 0 1 11.599609 13 L 15 13 L 15 12 L 12.207031 12 z M 5 13.689453 L 5 15 L 6 15 L 6 14.453125 A 5 6.5 0 0 1 5 13.689453 z M 11 13.691406 A 5 6.5 0 0 1 10 14.449219 L 10 15 L 11 15 L 11 13.691406 z "
   />
<path
   style="fill:#ffffff"
   d="M 1 1 L 1 4 L 5 4 L 5 1 L 1 1 z M 6 1 L 6 4 L 10 4 L 10 1 L 6 1 z M 11 1 L 11 4 L 15 4 L 15 1 L 11 1 z M 1 5 L 1 8 L 5 8 L 5 5 L 1 5 z M 6 5 L 6 12 L 10 12 L 10 5 L 6 5 z M 11 5 L 11 8 L 15 8 L 15 5 L 11 5 z M 1 9 L 1 12 L 5 12 L 5 9 L 1 9 z M 11 9 L 11 12 L 15 12 L 15 9 L 11 9 z M 1 13 L 1 15 L 5 15 L 5 13 L 1 13 z M 6 13 L 6 15 L 10 15 L 10 13 L 6 13 z M 11 13 L 11 15 L 15 15 L 15 13 L 11 13 z "
   />
<rect
   style="fill:#b8b8b8"
   width="2"
   height="5"
   x="7"
   y="6" />
<path
   style="fill:#b8b8b8"
   d="M 10 2.546875 L 10 4 L 6 4 L 6 2.5507812 A 5 6.5 0 0 0 5 3.3085938 L 5 4 L 4.4003906 4 A 5 6.5 0 0 0 3.7929688 5 L 5 5 L 5 8 L 3.0195312 8 A 5 6.5 0 0 0 3 8.5 A 5 6.5 0 0 0 3.015625 9 L 5 9 L 5 12 L 3.7871094 12 A 5 6.5 0 0 0 4.3945312 13 L 5 13 L 5 13.689453 A 5 6.5 0 0 0 6 14.453125 L 6 13 L 10 13 L 10 14.449219 A 5 6.5 0 0 0 11 13.691406 L 11 13 L 11.599609 13 A 5 6.5 0 0 0 12.207031 12 L 11 12 L 11 9 L 12.980469 9 A 5 6.5 0 0 0 13 8.5 A 5 6.5 0 0 0 12.984375 8 L 11 8 L 11 5 L 12.212891 5 A 5 6.5 0 0 0 11.605469 4 L 11 4 L 11 3.3105469 A 5 6.5 0 0 0 10 2.546875 z M 6 5 L 10 5 L 10 12 L 6 12 L 6 5 z " />
<path
   style="fill:#e68497"
   d="M 8 2 A 5 6.5 0 0 0 3 8.5 A 5 6.5 0 0 0 8 15 A 5 6.5 0 0 0 13 8.5 A 5 6.5 0 0 0 8 2 z M 8 3 A 4 5.5 0 0 1 12 8.5 A 4 5.5 0 0 1 8 14 A 4 5.5 0 0 1 4 8.5 A 4 5.5 0 0 1 8 3 z " />
</svg>
